!!!COM: Bach, Johann Sebastian
!!!OTL: Sinfonia No. 11; in g minor; BWV 797
!! Three-part sinfonia
!! Bach-Gesellschaft edition, pp.34-35
!! Performance duration: 1:58; performance tempo: 54.9 quarter-notes per minute.
!! (Andras Schiff, piano, "Two-Part Inventions BWV 772a-786; Three-part
!! Inventions BWV 787-801" Decca 411 974-2)
**kern	**kern	**kern
*staff2	*staff1	*staff1
*M3/8	*M3/8	*M3/8
*MM54.9	*MM54.9	*MM54.9
*g:	*g:	*g:
=1	=1	=1
4G	4.r	16r
.	.	16dd
.	.	16b-
.	.	16g
8E-	.	8gg
=2	=2	=2
4D	16r	4.ff
.	16a	.
.	16f	.
.	16d	.
8B-	[8dd	.
=3	=3	=3
4G	8.dd]	4.ee-
.	16b-	.
8A	[8cc	.
=4	=4	=4
16B-	8.cc]	4.dd
16d	.	.
16B-	.	.
16G	16a	.
[8g	8b-	.
=5	=5	=5
8.g]	[4.a	4cc
16en	.	.
8f#	.	8dd
=6	=6	=6
4g	16a]	8.b-
.	16f#	.
.	[4g	.
.	.	16b-
8c	.	8ee-
=7	=7	=7
4d	4g]	8.a
.	.	16b-
8D	8f#	8cc
=8	=8	=8
16G	4.g	4.b-
16D	.	.
16BB-	.	.
16GG	.	.
8G	.	.
=9	=9	=9
4.F	16r	[4bnM
.	16d	.
.	16Bn	.
.	16G	.
.	[8g	16b]
.	.	32a
.	.	32b
=10	=10	=10
16E-	4.g]	8.cc
16G	.	.
16E-	.	.
16C	.	16dd
[8c	.	[8ee-
=11	=11	=11
4c]	4f	16ee-]
.	.	16dd
.	.	16bn
.	.	16g
8Bn	8d	8ff
=12	=12	=12
[4.c	16r	[4.ee-
.	16g	.
.	16e-	.
.	16c	.
.	8b-	.
=13	=13	=13
16c]	4.a	8.ee-]
16c	.	.
16A	.	.
16F	.	16dd
8e-	.	[8cc
=14	=14	=14
8.d	8.f	16cc]
.	.	16ff
.	.	16dd
16g	[8.b-	16b-
8e-	.	8bb-
=15	=15	=15
4f	4b-]	8.dd
.	.	16ee-
8F	8a	8cc
=16	=16	=16
16B-	4.b-	4.b-
16F	.	.
16D	.	.
16BB-	.	.
8A	.	.
=17	=17	=17
4.G	16r	[4.bb-
.	16d	.
.	16B-	.
.	16G	.
.	8f	.
=18	=18	=18
8c	[4.e-	16bb-]
.	.	16gg
8B-	.	16ee-
.	.	16cc
8c	.	8bb-
=19	=19	=19
4.F	16e-]	[4.aa
.	16e-	.
.	16c	.
.	16A	.
.	8f	.
=20	=20	=20
8B-	[4.d	16aa]
.	.	16ff
8A	.	16dd
.	.	16b-
8B-	.	8bb-
=21	=21	=21
4.En	16d]	[4.gg
.	16d	.
.	16B-	.
.	16G	.
.	8en	.
=22	=22	=22
4.F	8c#	16gg]
.	.	16een
.	8A	16cc#
.	.	16a
.	[8d	[8ff
=23	=23	=23
8G	8d]	16ff]
.	.	16dd
8A	8c#	16b-
.	.	16g
8B-	8d	[8een
=24	=24	=24
[4.A	4c#M	16ee]
.	.	16g
.	.	16b-
.	.	16een
.	8d	16f
.	.	[16dd
=25	=25	=25
4.A_	4en	16dd]
.	.	16cc#
.	.	16een
.	.	16gg
.	8f	16dd
.	.	[16ff
=26	=26	=26
4.A_	4g	16ff]
.	.	16een
.	.	16gg
.	.	16bb-
.	8f	16dd
.	.	[16aa
=27	=27	=27
4.A_	4en	16aa]
.	.	16cc#
.	.	16een
.	.	16gg
.	8d	16bn
.	.	[16ff
=28	=28	=28
4.A_	4c#M	16ff]
.	.	16a
.	.	16cc#
.	.	16een
.	8Bn	16g#
.	.	16dd
=29	=29	=29
8.A]	[4.A	16cc#
.	.	16een
.	.	16cc#
16G	.	16a
16F	.	8gg
16En	.	.
=30	=30	=30
4D	16A]	4.ff
.	16a	.
.	16f	.
.	16d	.
8BB-	[8dd	.
=31	=31	=31
4GG	8.dd]	4.ee-
.	16b-	.
8AA	[8cc	.
=32	=32	=32
16BB-	8.cc]	[4.dd
16D	.	.
16BB-	.	.
16GG	16a	.
8G	8b-	.
=33	=33	=33
8.En	4g	16dd]
.	.	16cc#
.	.	16een
16en	.	16gg
8d	[8f	8bb-
=34	=34	=34
4c#	16f]	8.aa
.	16en	.
.	16c#	.
.	16A	16een
8d	8d	8ff
=35	=35	=35
8B-	8.f	8.dd
8G	.	.
.	16g	16een
8A	8en	8cc#
=36	=36	=36
16D	4d	4dd
16DD	.	.
16FF	.	.
16AA	.	.
16D	8r	8ff
16C	.	.
=37	=37	=37
16BBn	8r	[4.ff
16GG	.	.
16BB	16r	.
16D	16dd	.
16G	8bn	.
16F	.	.
=38	=38	=38
16E	8.g	8.ff]
16C	.	.
16E	.	.
16G	16bn	16dd
16c	8cc	8ee-
16B-	.	.
=39	=39	=39
16A	[4.cc	[4.ee-
16F	.	.
16A	.	.
16c	.	.
16f	.	.
16e-	.	.
=40	=40	=40
16d	8.cc]	8.ee-]
16B-	.	.
16d	.	.
16f	16a	16cc
16b-	[8b-	[8dd
16a	.	.
=41	=41	=41
4.g	8.b-]	16dd]
.	.	16bb-
.	.	16gg
.	16b-	16ee-
.	[8ee-	[8ccc
=42	=42	=42
4.f	8.ee-]	16ccc]
.	.	16aa
.	.	16ff
.	16a	16dd
.	[8dd	[8bb-
=43	=43	=43
4.e-	8.dd]	16bb-]
.	.	16gg
.	.	16ee-
.	16g	16cc
.	[8cc	8aa
=44	=44	=44
4.d	16cc]	4ff#
.	16f#	.
.	16a	.
.	16cc	.
.	[8b-	8gg
=45	=45	=45
4.c	16b-]	8.ee-
.	16e-	.
.	16g	.
.	16b-	16dd
.	[8a-	8cc
=46	=46	=46
8.B-	16a-]	8.dd
.	16f#	.
.	[4g	.
16d	.	16b-
8c	.	16a
.	.	16cc
=47	=47	=47
8.d	4g]	16b-
.	.	16dd
.	.	16cc
16c	.	16ee-
8d	8f#	16dd
.	.	16aa
=48	=48	=48
16G	4.g	[4.b-
16D	.	.
16BB-	.	.
16GG	.	.
8F	.	.
=49	=49	=49
[4.E-	8c	16b-]
.	.	16g
.	8B-	16e-
.	.	16c
.	8c	8b-
=50	=50	=50
16E-]	4.f	[4.a
16C	.	.
16AA	.	.
16FF	.	.
8F	.	.
=51	=51	=51
[4.D	8B-	16a]
.	.	16f
.	8A	16d
.	.	16B-
.	8B-	8a-
=52	=52	=52
16D]	[4.e-	[4.g
16BB-	.	.
16GG	.	.
16EE-	.	.
16GG	.	.
16BB-	.	.
=53	=53	=53
4.C	4.e-]	16g]
.	.	16b-
.	.	16an
.	.	16cc
.	.	16f#
.	.	[16a
=54	=54	=54
4.BB-	4.d	16a]
.	.	16a
.	.	16g
.	.	16b-
.	.	16en
.	.	[16g
=55	=55	=55
8.AA	4c	16g]
.	.	16g
.	.	16f#
16FF#	.	16a
8GG	8r	[8cc
=56	=56	=56
8.FF#	4.r	16cc]
.	.	16b-
.	.	16a
16AA	.	16cc
8C	.	[8ee-
=57	=57	=57
8DD	8r	16ee-]
.	.	16dd
[4D	8D	16cc
.	.	16b-
.	8En	16a
.	.	16g
=58	=58	=58
4.D_	4F#	16cc
.	.	16b-
.	.	16a
.	.	16g
.	8G	16f#
.	.	16en
=59	=59	=59
4.D_	4A	16d
.	.	16f#
.	.	16a
.	.	16cc
.	8B-	16g
.	.	[16b-
=60	=60	=60
4.D_	4c	16b-]
.	.	16a
.	.	16cc
.	.	16ee-
.	8B-	16g
.	.	[16dd
=61	=61	=61
4.D_	4A	16dd]
.	.	16f#
.	.	16a
.	.	16cc
.	8G	16en
.	.	[16b-
=62	=62	=62
4.D_	4F#	16b-]
.	.	16d
.	.	16f#
.	.	16a
.	8En	16c#
.	.	16g
=63	=63	=63
4.D_	16r	[4f#
.	16D	.
.	16F#	.
.	16A	.
.	[8d	16f#]
.	.	16f#
=64	=64	=64
8.D]	8.d]	16a
.	.	16cc
.	.	[4ee-
16c	16r	.
16B-	8r	.
16A	.	.
=65	=65	=65
4G	4.r	16ee-]
.	.	16dd
.	.	16b-
.	.	16g
8E-	.	8gg
=66	=66	=66
4D	16r	4.ff
.	16a	.
.	16f	.
.	16d	.
8B-	[8dd	.
=67	=67	=67
4G	8.dd]	4.ee-
.	16b-	.
8A	[8cc	.
=68	=68	=68
16B-	8.cc]	4.dd
16d	.	.
16B-	.	.
16G	16a	.
[8g	8b-	.
=69	=69	=69
8.g]	[4.a	4cc
16en	.	.
8f#	.	8dd
=70	=70	=70
4g	16a]	8.b-
.	16f#	.
.	[4g	.
.	.	16b-
8c	.	8ee-
=71	=71	=71
4d	4g]	8.b-
.	.	16cc
8D	8f#	8a
=72	=72	=72
4.GG;	4.g;	4.g;
====	====	====
*-	*-	*-
